!!!OTL: 644a. Warnung.
!!!ARE: Europa, Mitteleuropa, Deutschland, Berlin
!!!SCT: E0644
!!!TXL: @@DE
!!!YEM: Copyright 1995, estate of Helmut Schaffrath.
**kern	**text
*ICvox	*
*M2/4	*
*k[b-]	*
*F:	*
=1	=1
!LO:TX:a:t=Munter.	!
!LO:TX:a:t=Hagen's Mſpt. Nr. 54. Mel. aus Berlin um 1820.	!
{8f	Mäd-
8c	-chen,
8a	haſt
8f	du
=2	=2
8d	Luſt
8B-	ʒu
8B-	tru-
8B-}	-ten,
=3	=3
{4b-	trotʒ
4e	du
=4	=4
4f	nur!
4r}	.
=5	=5
{8f	Wird
8c	dir
8a	wahr-
8f	-lich
=6	=6
8d	we-
8B-	-nig
8B-	nu-
8B-}	-tʒen,
=7	=7
{4b-	glaub
4e	es
=8	=8
4f	nur!
4r}	.
=9	=9
{8cc	Wird
8cc	dir
16ccL	wahr-
16ddJ	.
16ccL	-lich
16b-J	.
=10	=10
8a	we-
8a	-nig
8a	nu-
8a}	-tzen,
=11	=11
{8cc	Dei-
8cc	-ne
16ccL	Un-
16ddJ	.
16ccL	-treu
16b-J	.
=12	=12
8a	währt
8a	nicht
8a	im-
8a}	-mer,
=13	=13
{8cc	denn
8a	es
16dd	giebt
16cc	.
16b-	noch
16a	.
=14	=14
8g	Frau-
8c	-en-
8c	-ʒim-
8c}	-mer,
=15	=15
{4b-	ſo
4e	wie
=16	=16
4f	du.
4r}	.
==	==
!!!AGN: Liebes - Lied
!!!ONB: ESAC (Essen Associative Code) Database: ERK2
!!!AMT: simple duple
!!!AIN: vox
!!!EED: Helmut Schaffrath
!!!EEV: 1.0
!!!GTL: Liebeslieder [Neuere (aus dem 18. bis 19. Jahrh.) - Liebeslust]
!!!URL-scan: https://rosdok.uni-rostock.de/mcrviewer/recordIdentifier/rosdok_ppn745177662/iview2/phys_0455.iview2?x=96.73604736993593&y=900.5495899762027&scale=0.7029437510502773&rotation=0&layout=singlePageLayout
!!!ENC: Anna Maria Matuszewska
!!!EEV: 2024/12/12
*-	*-
